X:1
T:Kost ar c'hoad
C:Traditionnel centre Bretagne, fichier abc : Bernard Loffet
L:1/8
Q:410
M:9/8
K:C
|: [eC,,]dc [B2C,2]c [d2C,2]e | [f2F,,2]e [f2F,2]g [e2F,2]f | [d3G,,3] [d3G,3] | [eC,,]dc [B2C,2]c [d2C,2]e | \
 [f2F,,2]e [d2F,2]f [e2G,2]d | [c3C,,3] [c3C,3] :|: [g3C,,3] [e3C,3] [f2F,2]g | [a3F,,3] [f3F,3] [d3F,3] | \
 [e2G,,2]f [g3C,3] | [e3C,,3] [c3C,3] [d2C,2]e | [f2F,,2]e [d2F,2]f [e2G,2]d | [c3C,,3] [c3C,3] :| \
Z:Created with TablEdit http://www.tabledit.com/ by Bernard Loffet
